;FLAVOR:UltiGCode
;TIME:18281
;MATERIAL:45677
;MATERIAL2:0
;NOZZLE_DIAMETER:0.4
;MINX:41.715
;MINY:21.715
;MINZ:0.27
;MAXX:181.285
;MAXY:201.285
;MAXZ:5.07
;Generated with Cura_SteamEngine 5.0.0
M82 ;absolute extrusion mode
G0 F3000 Y50 ;avoid prime blob
G92 E0
G92 E0
G10
;LAYER_COUNT:33
;LAYER:0
M107
G0 F4500 X42.694 Y25.732 Z0.27
G0 X41.715 Y29.515
;TYPE:SKIRT
G11
G1 F2400 X41.755 Y28.726 E0.08532
G1 X41.874 Y27.946 E0.17054
G1 X42.072 Y27.181 E0.25588
G1 X42.346 Y26.441 E0.3411
G1 X42.694 Y25.732 E0.4264
G1 X43.112 Y25.061 E0.51178
G1 X43.595 Y24.437 E0.597
G1 X44.138 Y23.864 E0.68226
G1 X44.737 Y23.349 E0.76757
G1 X45.385 Y22.898 E0.85284
G1 X46.076 Y22.514 E0.93822
G1 X46.801 Y22.202 E1.02346
G1 X47.554 Y21.965 E1.10872
G1 X48.328 Y21.806 E1.19405
G1 X49.113 Y21.725 E1.27928
G1 X49.515 Y21.715 E1.32271
G1 X173.485 Y21.715 E14.71147
G1 X174.274 Y21.755 E14.79679
G1 X175.054 Y21.874 E14.88201
G1 X175.819 Y22.072 E14.96735
G1 X176.559 Y22.346 E15.05257
G1 X177.268 Y22.694 E15.13787
G1 X177.939 Y23.112 E15.22325
G1 X178.563 Y23.595 E15.30847
G1 X179.136 Y24.138 E15.39373
G1 X179.651 Y24.737 E15.47904
G1 X180.102 Y25.385 E15.56431
G1 X180.486 Y26.076 E15.64969
G1 X180.798 Y26.801 E15.73493
G1 X181.035 Y27.554 E15.82019
G1 X181.194 Y28.328 E15.90552
G1 X181.275 Y29.113 E15.99075
G1 X181.285 Y29.515 E16.03418
G1 X181.285 Y193.485 E33.74294
G1 X181.245 Y194.274 E33.82827
G1 X181.126 Y195.054 E33.91348
G1 X180.928 Y195.819 E33.99882
G1 X180.654 Y196.559 E34.08405
G1 X180.306 Y197.268 E34.16934
G1 X179.888 Y197.939 E34.25472
G1 X179.405 Y198.563 E34.33995
G1 X178.862 Y199.136 E34.4252
G1 X178.263 Y199.651 E34.51052
G1 X177.615 Y200.102 E34.59578
G1 X176.924 Y200.486 E34.68116
G1 X176.199 Y200.798 E34.7664
G1 X175.446 Y201.035 E34.85166
G1 X174.672 Y201.194 E34.937
G1 X173.887 Y201.275 E35.02223
G1 X173.485 Y201.285 E35.06566
G1 X49.515 Y201.285 E48.45442
G1 X48.726 Y201.245 E48.53974
G1 X47.946 Y201.126 E48.62495
G1 X47.181 Y200.928 E48.7103
G1 X46.441 Y200.654 E48.79552
G1 X45.732 Y200.306 E48.88082
G1 X45.061 Y199.888 E48.9662
G1 X44.437 Y199.405 E49.05142
G1 X43.864 Y198.862 E49.13667
G1 X43.349 Y198.263 E49.22199
G1 X42.898 Y197.615 E49.30725
G1 X42.514 Y196.924 E49.39263
G1 X42.202 Y196.199 E49.47787
G1 X41.965 Y195.446 E49.56313
G1 X41.806 Y194.672 E49.64847
G1 X41.725 Y193.887 E49.7337
G1 X41.715 Y193.485 E49.77713
G1 X41.715 Y29.515 E67.48589
G0 F4500 X42.115 Y29.515
G1 F2400 X42.155 Y28.747 E67.56895
G1 X42.274 Y27.987 E67.65203
G1 X42.472 Y27.244 E67.73507
G1 X42.746 Y26.525 E67.81817
G1 X43.093 Y25.839 E67.9012
G1 X43.509 Y25.192 E67.98427
G1 X43.99 Y24.592 E68.06732
G1 X44.531 Y24.045 E68.15041
G1 X45.126 Y23.557 E68.23352
G1 X45.768 Y23.134 E68.31655
G1 X46.451 Y22.779 E68.39969
G1 X47.166 Y22.498 E68.48265
G1 X47.908 Y22.292 E68.56582
G1 X48.666 Y22.164 E68.64884
G1 X49.515 Y22.115 E68.74069
G1 X173.485 Y22.115 E82.12945
G1 X174.253 Y22.155 E82.21251
G1 X175.013 Y22.274 E82.29559
G1 X175.756 Y22.472 E82.37863
G1 X176.475 Y22.746 E82.46173
G1 X177.161 Y23.093 E82.54476
G1 X177.808 Y23.509 E82.62783
G1 X178.408 Y23.99 E82.71088
G1 X178.955 Y24.531 E82.79397
G1 X179.443 Y25.126 E82.87708
G1 X179.866 Y25.768 E82.96011
G1 X180.221 Y26.451 E83.04325
G1 X180.502 Y27.166 E83.12622
G1 X180.708 Y27.908 E83.20938
G1 X180.836 Y28.666 E83.29241
G1 X180.885 Y29.515 E83.38425
G1 X180.885 Y193.485 E101.09301
G1 X180.845 Y194.253 E101.17607
G1 X180.726 Y195.013 E101.25915
G1 X180.528 Y195.756 E101.34219
G1 X180.254 Y196.475 E101.42529
G1 X179.907 Y197.161 E101.50832
G1 X179.491 Y197.808 E101.59139
G1 X179.01 Y198.408 E101.67444
G1 X178.469 Y198.955 E101.75753
G1 X177.874 Y199.443 E101.84064
G1 X177.232 Y199.866 E101.92367
G1 X176.549 Y200.221 E102.00681
G1 X175.834 Y200.502 E102.08978
G1 X175.092 Y200.708 E102.17294
G1 X174.334 Y200.836 E102.25597
G1 X173.485 Y200.885 E102.34781
G1 X49.515 Y200.885 E115.73657
G1 X48.747 Y200.845 E115.81963
G1 X47.987 Y200.726 E115.90271
G1 X47.244 Y200.528 E115.98575
G1 X46.525 Y200.254 E116.06885
G1 X45.839 Y199.907 E116.15188
G1 X45.192 Y199.491 E116.23495
G1 X44.592 Y199.01 E116.318
G1 X44.045 Y198.469 E116.40109
G1 X43.557 Y197.874 E116.4842
G1 X43.134 Y197.232 E116.56723
G1 X42.779 Y196.549 E116.65037
G1 X42.498 Y195.834 E116.73334
G1 X42.292 Y195.092 E116.8165
G1 X42.164 Y194.334 E116.89953
G1 X42.115 Y193.485 E116.99137
G1 X42.115 Y29.515 E134.70013
G0 F4500 X42.515 Y29.515
G1 F2400 X42.674 Y28.03 E134.86143
G1 X43.145 Y26.612 E135.0228
G1 X43.907 Y25.326 E135.18424
G1 X44.923 Y24.231 E135.34556
G1 X46.149 Y23.377 E135.50693
G1 X46.823 Y23.053 E135.58769
G1 X48.256 Y22.629 E135.74909
G1 X49.515 Y22.515 E135.88562
G1 X173.485 Y22.515 E149.27438
G1 X174.97 Y22.674 E149.43567
G1 X176.388 Y23.145 E149.59705
G1 X177.674 Y23.907 E149.75848
G1 X178.769 Y24.923 E149.91981
G1 X179.623 Y26.149 E150.08117
G1 X179.947 Y26.823 E150.16194
G1 X180.371 Y28.256 E150.32334
G1 X180.485 Y29.515 E150.45987
G1 X180.485 Y193.485 E168.16863
G1 X180.326 Y194.97 E168.32992
G1 X179.855 Y196.388 E168.49129
G1 X179.093 Y197.674 E168.65273
G1 X178.077 Y198.769 E168.81406
G1 X176.851 Y199.623 E168.97542
G1 X176.177 Y199.947 E169.05619
G1 X174.744 Y200.371 E169.21758
G1 X173.485 Y200.485 E169.35411
G1 X49.515 Y200.485 E182.74287
G1 X48.03 Y200.326 E182.90417
G1 X46.612 Y199.855 E183.06554
G1 X45.326 Y199.093 E183.22698
G1 X44.231 Y198.077 E183.3883
G1 X43.377 Y196.851 E183.54967
G1 X43.053 Y196.177 E183.63043
G1 X42.629 Y194.744 E183.79183
G1 X42.515 Y193.485 E183.92836
G1 X42.515 Y29.515 E201.63712
G0 F4500 X42.915 Y29.515
G1 F2400 X43.074 Y28.073 E201.7938
G1 X43.545 Y26.701 E201.95046
G1 X43.89 Y26.062 E202.02889
G1 X44.78 Y24.917 E202.18551
G1 X45.314 Y24.424 E202.26401
G1 X46.528 Y23.63 E202.42067
G1 X47.193 Y23.337 E202.49915
G1 X47.886 Y23.119 E202.57761
G1 X48.598 Y22.979 E202.65598
G1 X49.515 Y22.915 E202.75526
G1 X173.485 Y22.915 E216.14402
G1 X174.927 Y23.074 E216.3007
G1 X176.299 Y23.545 E216.45736
G1 X176.938 Y23.89 E216.53579
G1 X178.083 Y24.78 E216.69241
G1 X178.576 Y25.314 E216.77091
G1 X179.37 Y26.528 E216.92757
G1 X179.663 Y27.193 E217.00605
G1 X179.881 Y27.886 E217.08451
G1 X180.021 Y28.598 E217.16288
G1 X180.085 Y29.515 E217.26216
G1 X180.085 Y193.485 E234.97092
G1 X179.926 Y194.927 E235.1276
G1 X179.455 Y196.299 E235.28426
G1 X179.11 Y196.938 E235.36269
G1 X178.22 Y198.083 E235.51931
G1 X177.686 Y198.576 E235.5978
G1 X176.472 Y199.37 E235.75447
G1 X175.807 Y199.663 E235.83295
G1 X175.114 Y199.881 E235.91141
G1 X174.402 Y200.021 E235.98978
G1 X173.485 Y200.085 E236.08906
G1 X49.515 Y200.085 E249.47782
G1 X48.073 Y199.926 E249.6345
G1 X46.701 Y199.455 E249.79116
G1 X46.062 Y199.11 E249.86959
G1 X44.917 Y198.22 E250.02621
G1 X44.424 Y197.686 E250.1047
G1 X43.63 Y196.472 E250.26137
G1 X43.337 Y195.807 E250.33985
G1 X43.119 Y195.114 E250.41831
G1 X42.979 Y194.402 E250.49668
G1 X42.915 Y193.485 E250.59596
G1 X42.915 Y29.515 E268.30472
G0 F4500 X43.315 Y29.515
G1 F2400 X43.474 Y28.118 E268.45657
G1 X43.944 Y26.794 E268.6083
G1 X44.7 Y25.609 E268.76011
G1 X45.704 Y24.624 E268.91201
G1 X46.904 Y23.892 E269.06382
G1 X47.558 Y23.632 E269.13983
G1 X48.934 Y23.342 E269.2917
G1 X49.515 Y23.315 E269.35451
G1 X173.485 Y23.315 E282.74327
G1 X174.882 Y23.474 E282.89512
G1 X176.206 Y23.944 E283.04686
G1 X177.391 Y24.7 E283.19867
G1 X178.376 Y25.704 E283.35057
G1 X179.108 Y26.904 E283.50238
G1 X179.368 Y27.558 E283.57839
G1 X179.658 Y28.934 E283.73026
G1 X179.685 Y29.515 E283.79307
G1 X179.685 Y193.485 E301.50183
G1 X179.526 Y194.882 E301.65368
G1 X179.056 Y196.206 E301.80542
G1 X178.3 Y197.391 E301.95723
G1 X177.296 Y198.376 E302.10913
G1 X176.096 Y199.108 E302.26094
G1 X175.442 Y199.368 E302.33695
G1 X174.066 Y199.658 E302.48882
G1 X173.485 Y199.685 E302.55163
G1 X49.515 Y199.685 E315.94039
G1 X48.118 Y199.526 E316.09224
G1 X46.794 Y199.056 E316.24398
G1 X45.609 Y198.3 E316.39578
G1 X44.624 Y197.296 E316.54769
G1 X43.892 Y196.096 E316.6995
G1 X43.632 Y195.442 E316.7755
G1 X43.342 Y194.066 E316.92738
G1 X43.315 Y193.485 E316.99019
G1 X43.315 Y29.515 E334.69895
G0 F4500 X43.715 Y29.515
G1 F2400 X43.874 Y28.165 E334.84576
G1 X44.071 Y27.513 E334.91932
G1 X44.343 Y26.889 E334.99284
G1 X45.097 Y25.757 E335.13973
G1 X46.093 Y24.832 E335.28653
G1 X46.665 Y24.463 E335.36005
G1 X47.919 Y23.939 E335.50683
G1 X48.584 Y23.79 E335.58043
G1 X49.515 Y23.715 E335.6813
G1 X173.485 Y23.715 E349.07006
G1 X174.835 Y23.874 E349.21687
G1 X175.487 Y24.071 E349.29043
G1 X176.111 Y24.343 E349.36395
G1 X177.243 Y25.097 E349.51084
G1 X178.168 Y26.093 E349.65764
G1 X178.537 Y26.665 E349.73116
G1 X179.061 Y27.919 E349.87794
G1 X179.21 Y28.584 E349.95154
G1 X179.285 Y29.515 E350.05241
G1 X179.285 Y193.485 E367.76117
G1 X179.126 Y194.835 E367.90798
G1 X178.929 Y195.487 E367.98154
G1 X178.657 Y196.111 E368.05506
G1 X177.903 Y197.243 E368.20195
G1 X176.907 Y198.168 E368.34875
G1 X176.335 Y198.537 E368.42227
G1 X175.081 Y199.061 E368.56905
G1 X174.416 Y199.21 E368.64265
G1 X173.485 Y199.285 E368.74352
G1 X49.515 Y199.285 E382.13228
G1 X48.165 Y199.126 E382.27909
G1 X47.513 Y198.929 E382.35265
G1 X46.889 Y198.657 E382.42617
G1 X45.757 Y197.903 E382.57306
G1 X44.832 Y196.907 E382.71986
G1 X44.463 Y196.335 E382.79338
G1 X43.939 Y195.081 E382.94016
G1 X43.79 Y194.416 E383.01376
G1 X43.715 Y193.485 E383.11463
G1 X43.715 Y29.515 E400.82339
G0 F4500 X44.115 Y29.515
G1 F2400 X44.274 Y28.213 E400.96505
G1 X44.471 Y27.586 E401.03603
G1 X45.085 Y26.427 E401.17768
G1 X45.96 Y25.45 E401.31933
G1 X47.044 Y24.713 E401.4609
G1 X48.275 Y24.259 E401.6026
G1 X49.515 Y24.115 E401.73742
G1 X173.485 Y24.115 E415.12618
G1 X174.787 Y24.274 E415.26784
G1 X175.414 Y24.471 E415.33882
G1 X176.573 Y25.085 E415.48047
G1 X177.55 Y25.96 E415.62212
G1 X178.287 Y27.044 E415.76369
G1 X178.741 Y28.275 E415.90539
G1 X178.885 Y29.515 E416.04021
G1 X178.885 Y193.485 E433.74897
G1 X178.726 Y194.787 E433.89063
G1 X178.529 Y195.414 E433.96161
G1 X177.915 Y196.573 E434.10326
G1 X177.04 Y197.55 E434.24491
G1 X175.956 Y198.287 E434.38648
G1 X174.725 Y198.741 E434.52818
G1 X173.485 Y198.885 E434.663
G1 X49.515 Y198.885 E448.05176
G1 X48.213 Y198.726 E448.19342
G1 X47.586 Y198.529 E448.2644
G1 X46.427 Y197.915 E448.40605
G1 X45.45 Y197.04 E448.5477
G1 X44.713 Y195.956 E448.68926
G1 X44.259 Y194.725 E448.83097
G1 X44.115 Y193.485 E448.96579
G1 X44.115 Y29.515 E466.67455
G0 F4500 X44.515 Y29.515
G1 F2400 X44.674 Y28.263 E466.81085
G1 X45.142 Y27.091 E466.94714
G1 X45.482 Y26.559 E467.01533
G1 X46.351 Y25.644 E467.15161
G1 X46.865 Y25.275 E467.21995
G1 X48.01 Y24.747 E467.35612
G1 X48.624 Y24.595 E467.42444
G1 X49.515 Y24.515 E467.52105
G1 X173.485 Y24.515 E480.90981
G1 X174.737 Y24.674 E481.04612
G1 X175.909 Y25.142 E481.18241
G1 X176.441 Y25.482 E481.2506
G1 X177.356 Y26.351 E481.38688
G1 X177.725 Y26.865 E481.45522
G1 X178.253 Y28.01 E481.59139
G1 X178.405 Y28.624 E481.65971
G1 X178.485 Y29.515 E481.75632
G1 X178.485 Y193.485 E499.46508
G1 X178.326 Y194.737 E499.60138
G1 X177.858 Y195.909 E499.73768
G1 X177.518 Y196.441 E499.80587
G1 X176.649 Y197.356 E499.94215
G1 X176.135 Y197.725 E500.01049
G1 X174.99 Y198.253 E500.14666
G1 X174.376 Y198.405 E500.21497
G1 X173.485 Y198.485 E500.31159
G1 X49.515 Y198.485 E513.70035
G1 X48.263 Y198.326 E513.83665
G1 X47.091 Y197.858 E513.97295
G1 X46.559 Y197.518 E514.04113
G1 X45.644 Y196.649 E514.17742
G1 X45.275 Y196.135 E514.24575
G1 X44.747 Y194.99 E514.38193
G1 X44.595 Y194.376 E514.45024
G1 X44.515 Y193.485 E514.54686
G1 X44.515 Y29.515 E532.25562
G0 F4500 X44.915 Y29.515
G1 F2400 X45.074 Y28.316 E532.38624
G1 X45.27 Y27.742 E532.45175
G1 X45.88 Y26.696 E532.58252
G1 X46.74 Y25.846 E532.71312
G1 X47.793 Y25.249 E532.84385
G1 X48.965 Y24.948 E532.97453
G1 X49.515 Y24.915 E533.03404
G1 X173.485 Y24.915 E546.4228
G1 X174.684 Y25.074 E546.55342
G1 X175.258 Y25.27 E546.61893
G1 X176.304 Y25.88 E546.7497
G1 X177.154 Y26.74 E546.88029
G1 X177.751 Y27.793 E547.01102
G1 X178.052 Y28.965 E547.14171
G1 X178.085 Y29.515 E547.20121
G1 X178.085 Y193.485 E564.90997
G1 X177.926 Y194.684 E565.0406
G1 X177.73 Y195.258 E565.10611
G1 X177.12 Y196.304 E565.23688
G1 X176.26 Y197.154 E565.36747
G1 X175.207 Y197.751 E565.4982
G1 X174.035 Y198.052 E565.62888
G1 X173.485 Y198.085 E565.68839
G1 X49.515 Y198.085 E579.07715
G1 X48.316 Y197.926 E579.20778
G1 X47.742 Y197.73 E579.27328
G1 X46.696 Y197.12 E579.40406
G1 X45.846 Y196.26 E579.53465
G1 X45.249 Y195.207 E579.66538
G1 X44.948 Y194.035 E579.79606
G1 X44.915 Y193.485 E579.85557
G1 X44.915 Y29.515 E597.56433
G0 F4500 X45.315 Y29.515
G1 F2400 X45.474 Y28.37 E597.68918
G1 X45.939 Y27.312 E597.81399
G1 X46.276 Y26.841 E597.87654
G1 X47.128 Y26.059 E598.00144
G1 X48.16 Y25.539 E598.12624
G1 X48.72 Y25.391 E598.1888
G1 X49.515 Y25.315 E598.27505
G1 X173.485 Y25.315 E611.66381
G1 X174.63 Y25.474 E611.78866
G1 X175.688 Y25.939 E611.91347
G1 X176.159 Y26.276 E611.97602
G1 X176.941 Y27.128 E612.10092
G1 X177.461 Y28.16 E612.22572
G1 X177.609 Y28.72 E612.28828
G1 X177.685 Y29.515 E612.37453
G1 X177.685 Y193.485 E630.08329
G1 X177.526 Y194.63 E630.20814
G1 X177.061 Y195.688 E630.33295
G1 X176.724 Y196.159 E630.3955
G1 X175.872 Y196.941 E630.52039
G1 X174.84 Y197.461 E630.6452
G1 X174.28 Y197.609 E630.70776
G1 X173.485 Y197.685 E630.79401
G1 X49.515 Y197.685 E644.18277
G1 X48.37 Y197.526 E644.30761
G1 X47.312 Y197.061 E644.43243
G1 X46.841 Y196.724 E644.49498
G1 X46.059 Y195.872 E644.61987
G1 X45.539 Y194.84 E644.74468
G1 X45.391 Y194.28 E644.80724
G1 X45.315 Y193.485 E644.89349
G1 X45.315 Y29.515 E662.60225
G0 F4500 X45.715 Y29.515
G1 F2400 X45.874 Y28.427 E662.721
G1 X46.338 Y27.431 E662.83967
G1 X46.672 Y26.993 E662.89916
G1 X47.513 Y26.285 E663.01789
G1 X48.521 Y25.847 E663.13658
G1 X49.515 Y25.715 E663.24488
G1 X173.485 Y25.715 E676.63364
G1 X174.573 Y25.874 E676.75239
G1 X175.569 Y26.338 E676.87106
G1 X176.007 Y26.672 E676.93055
G1 X176.715 Y27.513 E677.04927
G1 X177.153 Y28.521 E677.16797
G1 X177.285 Y29.515 E677.27627
G1 X177.285 Y193.485 E694.98503
G1 X177.126 Y194.573 E695.10378
G1 X176.662 Y195.569 E695.22245
G1 X176.328 Y196.007 E695.28193
G1 X175.487 Y196.715 E695.40066
G1 X174.479 Y197.153 E695.51936
G1 X173.485 Y197.285 E695.62765
G1 X49.515 Y197.285 E709.01641
G1 X48.427 Y197.126 E709.13517
G1 X47.431 Y196.662 E709.25383
G1 X46.993 Y196.328 E709.31332
G1 X46.285 Y195.487 E709.43205
G1 X45.847 Y194.479 E709.55075
G1 X45.715 Y193.485 E709.65904
G1 X45.715 Y29.515 E727.3678
G0 F4500 X46.115 Y29.515
G1 F2400 X46.155 Y28.995 E727.42413
G1 X46.469 Y28.005 E727.5363
G1 X46.735 Y27.557 E727.59257
G1 X47.067 Y27.155 E727.64888
G1 X47.895 Y26.526 E727.76118
G1 X48.37 Y26.313 E727.8174
G1 X48.873 Y26.176 E727.8737
G1 X49.515 Y26.115 E727.94335
G1 X173.485 Y26.115 E741.33211
G1 X174.005 Y26.155 E741.38844
G1 X174.995 Y26.469 E741.5006
G1 X175.443 Y26.735 E741.55687
G1 X175.845 Y27.067 E741.61318
G1 X176.474 Y27.895 E741.72548
G1 X176.687 Y28.37 E741.7817
G1 X176.824 Y28.873 E741.83801
G1 X176.885 Y29.515 E741.90766
G1 X176.885 Y193.485 E759.61642
G1 X176.845 Y194.005 E759.67274
G1 X176.531 Y194.995 E759.78491
G1 X176.265 Y195.443 E759.84118
G1 X175.933 Y195.845 E759.89749
G1 X175.105 Y196.474 E760.00979
G1 X174.63 Y196.687 E760.06601
G1 X174.127 Y196.824 E760.12231
G1 X173.485 Y196.885 E760.19196
G1 X49.515 Y196.885 E773.58072
G1 X48.995 Y196.845 E773.63705
G1 X48.005 Y196.531 E773.74922
G1 X47.557 Y196.265 E773.80549
G1 X47.155 Y195.933 E773.8618
G1 X46.526 Y195.105 E773.9741
G1 X46.313 Y194.63 E774.03032
G1 X46.176 Y194.127 E774.08662
G1 X46.115 Y193.485 E774.15627
G1 X46.115 Y29.515 E791.86503
G0 F4500 X46.515 Y29.515
G1 F2400 X46.555 Y29.027 E791.91791
G1 X46.868 Y28.103 E792.02327
G1 X47.461 Y27.328 E792.12866
G1 X47.844 Y27.023 E792.18154
G1 X48.732 Y26.619 E792.2869
G1 X49.515 Y26.515 E792.37221
G1 X173.485 Y26.515 E805.76097
G1 X173.973 Y26.555 E805.81385
G1 X174.897 Y26.868 E805.91921
G1 X175.672 Y27.461 E806.0246
G1 X175.977 Y27.844 E806.07748
G1 X176.381 Y28.732 E806.18284
G1 X176.485 Y29.515 E806.26815
G1 X176.485 Y193.485 E823.97691
G1 X176.445 Y193.973 E824.02979
